X: 2450
T: Ballintore Fancy, The
R: slide
M: 12/8
K: Gmajor
M:6/8
|:G2 B B3|G2 B d2 B|G2 B B3|F2 G A2 F|
G2 B B3|G2 B d2 B|e2 c A2 G|1 F2 G A2 F:|2 F2 G A2 D||
|:B2 E E3|B2 E G2 A|B2 E E3|A3 G2 A|
B2 E E3|c3 B2 c|A2 G F2 G|1 A2 D G2 A:|2 A2 c B2 A||

